src/assets/outline/Paintbucket.svg

<svg width="24" height="24" viewBox="0 0 24 24"  xmlns="http://www.w3.org/2000/svg">
<path d="M10.06 21.5802C9.06001 21.5802 8.05001 20.9002 6.70001 19.5602L3.24001 16.1002C0.300006 13.1602 0.600006 12.0302 3.24001 9.3802L8.81001 3.8002C10.78 1.8302 12.41 0.680196 15.53 3.8002L18.99 7.2602C21.8 10.0702 21.12 11.8502 18.99 13.9802L13.42 19.5502C12.07 20.9002 11.07 21.5802 10.06 21.5802ZM4.30001 15.0302L7.76001 18.4902C9.88001 20.6102 10.23 20.6202 12.36 18.4902L17.93 12.9202C19.6 11.2502 20.03 10.4202 17.93 8.3202L14.47 4.8602C12.28 2.6702 11.62 3.1202 9.87001 4.8602L4.30001 10.4302C2.18001 12.5602 2.00001 12.7302 4.30001 15.0302Z" />
<path d="M20.1399 21.4599C18.9999 21.4599 18.0999 21.0199 17.6599 20.2499C17.2199 19.4799 17.3099 18.4799 17.8999 17.4999L18.5599 16.4099C18.9499 15.7699 19.5199 15.3999 20.1399 15.3999C20.7599 15.3999 21.3399 15.7699 21.7199 16.4099L22.3799 17.4999C22.9699 18.4799 23.0499 19.4799 22.6199 20.2499C22.1899 21.0199 21.2699 21.4599 20.1399 21.4599ZM20.1399 16.8999C20.0899 16.8999 19.9699 16.9799 19.8399 17.1799L19.1799 18.2699C18.8799 18.7699 18.7999 19.2199 18.9599 19.5099C19.1199 19.7999 19.5499 19.9599 20.1299 19.9599C20.7099 19.9599 21.1399 19.7999 21.2999 19.5099C21.4599 19.2199 21.3799 18.7799 21.0799 18.2699L20.4199 17.1799C20.3099 16.9699 20.1899 16.8999 20.1399 16.8999Z" />
<path d="M2.00014 12.9901C1.67014 12.9901 1.37014 12.7701 1.28014 12.4401C1.17014 12.0401 1.41014 11.6301 1.81014 11.5201C7.48014 9.98011 13.4901 9.93011 19.1901 11.3901L19.6901 11.5201C20.0901 11.6201 20.3301 12.0301 20.2301 12.4301C20.1301 12.8301 19.7201 13.0701 19.3201 12.9701L18.8201 12.8401C13.3701 11.4401 7.63014 11.4901 2.21014 12.9701C2.13014 12.9901 2.06014 12.9901 2.00014 12.9901Z" />
</svg>

<?xml version="1.0" encoding="UTF-8"?>
<svg width="24" height="24" viewBox="0 0 24 24" xmlns="http://www.w3.org/2000/svg">
 <path d="m10.06 21.58c-0.99999 0-2.01-0.68-3.36-2.02l-3.46-3.46c-2.94-2.94-2.64-4.07 0-6.72l5.57-5.58c1.97-1.97 3.6-3.12 6.72 0l3.46 3.46c2.81 2.81 2.13 4.59 0 6.72l-5.57 5.57c-1.35 1.35-2.35 2.03-3.36 2.03zm-5.76-6.55 3.46 3.46c2.12 2.12 2.47 2.13 4.6 0l5.57-5.57c1.67-1.67 2.1-2.5 0-4.6l-3.46-3.46c-2.19-2.19-2.85-1.74-4.6 0l-5.57 5.57c-2.12 2.13-2.3 2.3 0 4.6z"/>
 <path d="m20.14 21.46c-1.14 0-2.04-0.44-2.48-1.21s-0.35-1.77 0.24-2.75l0.66-1.09c0.39-0.64 0.96-1.01 1.58-1.01s1.2 0.37 1.58 1.01l0.66 1.09c0.59 0.98 0.67 1.98 0.24 2.75s-1.35 1.21-2.48 1.21zm0-4.56c-0.05 0-0.17 0.08-0.3 0.28l-0.66 1.09c-0.3 0.5-0.38 0.95-0.22 1.24s0.59 0.45 1.17 0.45 1.01-0.16 1.17-0.45 0.08-0.73-0.22-1.24l-0.66-1.09c-0.11-0.21-0.23-0.28-0.28-0.28z"/>
 <path d="m2.0001 12.99c-0.33 0-0.63-0.22-0.72-0.55-0.11-0.4 0.13-0.81 0.53-0.92 5.67-1.54 11.68-1.59 17.38-0.13l0.5 0.13c0.4 0.1 0.64 0.51 0.54 0.91s-0.51 0.64-0.91 0.54l-0.5-0.13c-5.45-1.4-11.19-1.35-16.61 0.13-0.08 0.02-0.15 0.02-0.21 0.02z"/>
</svg>
